X:1
T:Title
%%score { ( 1 3 ) | 2 }
L:1/8
M:4/4
K:Ab
V:1 treble nm="Grand Piano"
V:3 treble 
V:2 bass 
V:1
 z4 z2[Q:1/4=100] [Ec]>[Ec] | [DB]2 [CA]2 [CE]2 [EA]>[EA] | [EG]2 [DF]2 [FB]2 [FB]>[FA] | %3
 [EG]>[FA] [GB]>[Ac] [Bd]2 [Ge]2 | [Ac]6 [Ec]>[Ec] | [DB]2 [CA]2 [CE]2 [EA]>[EA] | %6
[M:9/8] [EG]2 [DF]- [DF] [Ed]2- [Ed][Fc]>[FB] |[M:4/4] A>E E>d c2 B2 |[M:3/4] [CA]6 |[M:1/4] c>d | %10
[M:4/4] ecBA [DF]2 [DA]2 | z z/ A,/ A,>A, A,2 c>d | ecBA F2 A2 | B6 z2 | dddc z DAB | %15
 [Ec][Ec][Ec][EB] [EA]2 [FA]F | EAAd c2 B2 |[M:3/4] [CA]6 |] %18
V:2
 z4 z2 [A,,A,]>[A,,A,] | [A,,E,]2 [A,,E,]2 [A,,A,]2 [C,A,]>[C,A,] | %2
 [D,A,]2 [D,A,]2 [D,D]2 [D,D]>[D,D] | [E,B,]>[E,B,] [E,E]>[E,E] [E,E]2 [E,E]2 | %4
 [A,E]6 [A,,A,]>[A,,A,] | [A,,E,]2 [A,,E,]2 [A,,A,]2 [C,A,]>[C,A,] | %6
[M:9/8] [D,A,]2 [D,A,]- [D,A,] [B,,B,]2- [B,,B,][C,=A,]>[D,B,] | %7
[M:4/4] [E,CE]>[E,A,C] [E,A,C]>[E,A,F] [E,G,E]2 [E,G,D]2 |[M:3/4] [A,,A,]6 |[M:1/4] [A,E]>[A,B,E] | %10
[M:4/4] [A,CE][A,E][A,D][A,C] [A,,A,]2 [A,,F,]2 | [A,,A,]>A,, A,,>A,, A,,2 [A,E]>[A,B,E] | %12
 [A,CE][A,E][A,D][A,C] [A,D]2 [A,C]2 | [E,G,E]2 [E,A,]2 [E,B,]2 [E,G,E][E,A,E] | %14
 [E,B,E][E,B,E][E,B,E][E,A,E] .[E,G,E]2 [E,A,C][E,G,E] | %15
 [A,,A,][A,,A,][A,,A,][B,,G,] [C,A,]2 [D,A,][D,A,D] | %16
 [E,A,C][E,CE][E,CE][E,A,F] [E,G,E]2 [E,G,D]2 |[M:3/4] [A,,A,]6 |] %18
V:3
 x8 | x8 | x8 | x8 | x8 | x8 |[M:9/8] x9 |[M:4/4] x8 |[M:3/4] x6 |[M:1/4] x2 |[M:4/4] x8 | %11
 [CE]6 z2 | x8 | z2 F2 G2 Bc | z4 B2 z2 | x8 | x8 |[M:3/4] x6 |] %18

